assets/arrow-up-circle.svg

<svg xmlns="http://www.w3.org/2000/svg" fill="none" viewBox="0 0 28 28">
  <path fill="#2A2238" d="M13.25 24c0 .4142.3358.75.75.75s.75-.3358.75-.75h-1.5Zm1.2803-20.53033c-.2929-.29289-.7677-.29289-1.0606 0l-4.773 4.77297c-.29289.29289-.29289.76777 0 1.06066s.76777.29289 1.06066 0L14 5.06066l4.2426 4.24264c.2929.29289.7678.29289 1.0607 0 .2929-.29289.2929-.76777 0-1.06066l-4.773-4.77297ZM14.75 24V4h-1.5v20h1.5Z"/>
  <circle cx="14" cy="14" r="13.25" stroke="#2A2238" stroke-width="1.5"/>
</svg>

<svg width="28" height="28" viewBox="0 0 28 28" fill="none" xmlns="http://www.w3.org/2000/svg">
<path d="M13.25 24C13.25 24.4142 13.5858 24.75 14 24.75C14.4142 24.75 14.75 24.4142 14.75 24H13.25ZM14.5303 3.46967C14.2374 3.17678 13.7626 3.17678 13.4697 3.46967L8.6967 8.24264C8.40381 8.53553 8.40381 9.01041 8.6967 9.3033C8.98959 9.59619 9.46447 9.59619 9.75736 9.3033L14 5.06066L18.2426 9.3033C18.5355 9.59619 19.0104 9.59619 19.3033 9.3033C19.5962 9.01041 19.5962 8.53553 19.3033 8.24264L14.5303 3.46967ZM14.75 24L14.75 4H13.25L13.25 24H14.75Z" fill="#2A2238"/>
<circle cx="14" cy="14" r="13.25" stroke="#2A2238" stroke-width="1.5"/>
</svg>
